src/apps/symbolic/org.gnome.font-viewer-symbolic.svg

<svg width="16" height="16" enable-background="new" version="1.1" xmlns="http://www.w3.org/2000/svg">
 <title>Gnome Symbolic Icons</title>
 <path d="m3.5098 0.49219-2.4844 2.5156 1.9746-0.011719v9.0039h-0.99219v1h0.99219v0.97461h1v-0.97461h8.9961l0.003906 2 2.5078-2.4902-2.5156-2.4844 0.003906 1.9746h-8.9961v-9.0117l1.9746-0.011719-2.4648-2.4844z" fill="#363636"/>
 <path d="m7 3v1h3c0.554 0 1 0.446 1 1v1h-3.5c-1.385 0-2.5 1.115-2.5 2.5s1.115 2.5 2.5 2.5h3.5 1v-1-3-1-1c0-1.108-0.892-2-2-2h-3zm0.5 4h3.5v3h-3.5c-0.831 0-1.5-0.669-1.5-1.5s0.669-1.5 1.5-1.5z" fill="#363636"/>
</svg>

<svg xmlns="http://www.w3.org/2000/svg" width="16" height="16">
    <path fill="#050505" fill-opacity=".7" d="M3.51.492 1.025 3.008 3 2.996V12h-.992v1H3v.975h1V13h8.996L13 15l2.508-2.49-2.516-2.485.004 1.975H4V2.988l1.975-.011L3.51.492z"/>
    <path fill="#050505" fill-opacity=".7" d="M7 3v1h3c.554 0 1 .446 1 1v1H7.5C6.115 6 5 7.115 5 8.5S6.115 11 7.5 11H12V5c0-1.108-.892-2-2-2H7zm.5 4H11v3H7.5C6.669 10 6 9.331 6 8.5S6.669 7 7.5 7z"/>
</svg>
